X:1
T:Green Acres
C:Music and Lyrics by Vic Mizzy
N:(c) 1965, 1989 Orion Music Publishing
M:C|
L:1/4
Q:1/2=120
K:D
P:Intro
|"D"D/2F/2 z/2 A/2 B A|z .d .d z|D/2F/2 z/2 A/2 B A|"A7"z .E .E z
|"D"D/2F/2 z/2 A/2 "D7"B A|"G"G/2B/2 z/2 d/2 "G#dim"e d
|"D"A/2F/2 z/2 G/2 "A7"E "D"D|z .d .d z|
P:Eddie Albert
|"D"d4|d A F "Fdim"D|"A7"C2 A A-|A4
w:Green A-cres is the place to be,_
|c4|c A "Em7"G "A7"E|"D"D2 d d-|d4
w:Farm liv-in is the life for me._
|d4|"D7"d A F D|"G"G2 B d-|"G#dim"d4
w:Land spread-in' out so far and wide;_
|"D"A F "Bm7"A/2A/2 F|"Em7"A/2A/2 G "A7"F E|"D"D2-"D7"D2-|"C"D2-"D7"D2
w:Keep Man-hat-tan, just give me that coun-try side.___|
P:Eva Gabor
|"G"g4|g d B "Bbdim"G|"D7"F2 d d-|d4
w:New York is where I'd rath-er stay,
|f4|f d "Am7"c "D7"A|"G"G2 g g-|g4
w:I get al-ler-gic smell-ing hay._
|G4|"G7"g d B G|"C"c2 e g-|"C#dim"g4
w:I just a-dore a pent-house view,_
|"G"d/2d/2 B "Em7"d/2d/2 B|"Am7"d/2d/2 c "D7"B A
w:Dar-ling, I love you, but give me Park Av-e-
|"G"G2- "Em7"G2|"A7"A/2A/2 "Em7"G "Adim"F "A7"E
w:nue._______
|"D"D/2F/2 z/2 A/2 B A|z .d .d z|D/2F/2 z/2 A/2 B A|"A7"z .E .E z
w:||(Eddie)~The chores!||(Eva)~The stores!
|"D"D/2F/2 z/2 A/2 B A|z .d .d z|D/2F/2 z/2 A/2 F A|"A7"z .E .E z
w:||(Eddie)~Fresh air!||(Eva)~Times square!
|"D"D/2F/2 z/2 A/2 "Am7"B2|E2 "D7"F A|"G"G/2B/2 z/2 d/2 "G6"e2
w:(Eddie)~You are my wife!|__(Eva)~Good-bye, cit-y life!|
|E2 "G#dim"=F B|"D"A2 "Bb7"_B2|"Em7"B2 "A7"c2|"D"D/2F/2 z/2 A/2 B A|z .d .d z||
w:__(Both)~Green A-cres, we are there.______
